icons/haxeflixel-light.svg

<svg width="256" height="256" viewBox="0 0 256 256" fill="none" xmlns="http://www.w3.org/2000/svg">
<rect width="256" height="256" rx="60" fill="#F4F2ED"/>
<path d="M56.8047 55.9771H199.633V199.839H56.8047V55.9771Z" fill="#00CC33"/>
<path d="M33 32H80.6094L128.219 55.977L56.8047 127.908L33 79.9541V32Z" fill="#FFCC33"/>
<path d="M128.219 55.977L175.828 32H223.437V79.9541L199.633 127.908L128.219 55.977Z" fill="#FF3366"/>
<path d="M56.8047 127.908L128.219 199.839L80.6094 223.816H33V175.862L56.8047 127.908Z" fill="#3333FF"/>
<path d="M199.633 127.908L223.437 175.862V223.816H175.828L128.219 199.839L199.633 127.908Z" fill="#00CCFF"/>
</svg>

<svg xmlns="http://www.w3.org/2000/svg" width="256" height="256" fill="none"><rect width="256" height="256" fill="#F4F2ED" rx="60"/><path fill="#0C3" d="M56.805 55.977h142.828V199.84H56.805z"/><path fill="#FC3" d="M33 32h47.61l47.609 23.977-71.414 71.931L33 79.954z"/><path fill="#F36" d="M128.219 55.977 175.828 32h47.609v47.954l-23.804 47.954z"/><path fill="#33F" d="m56.805 127.908 71.414 71.931-47.61 23.977H33v-47.954z"/><path fill="#0CF" d="m199.633 127.908 23.804 47.954v47.954h-47.609l-47.609-23.977z"/></svg>
